picto/stairs-down-right.svg

<svg class="color-immutable" width="24" height="24" viewBox="0 0 24 24" fill="none" xmlns="http://www.w3.org/2000/svg"><g clip-path="url(#a)"><path d="M0 22.5v-21C0 .675.675 0 1.5 0h21c.825 0 1.5.675 1.5 1.5v21c0 .825-.675 1.5-1.5 1.5h-21C.675 24 0 23.325 0 22.5Z" fill="#2D327D"/><path d="M7.088 17.552h3.413v1.388h3.413v1.388h3.414v.675h-4.089v-1.388H9.826v-1.388H6.413v-1.388H2.999v-.675h4.089v1.388ZM20.474 11.563a.503.503 0 0 1-.195-.039l-.551-.23v-1.098l.941.393a.507.507 0 0 1-.195.974Z" fill="#fff"/><path d="M20.31 21.003a.694.694 0 0 1-.694-.694v-3.282l-1.613-2.776V16.6a.752.752 0 0 1-.109.39l-1.593 2.616a.694.694 0 0 1-1.186-.722l1.387-2.278V8.391l-.75 1.088v2.747a.525.525 0 1 1-1.05 0V9.319c0-.152.046-.301.133-.426l1.558-2.259a1.501 1.501 0 0 1 2.735.851V13.2l1.774 3.053a.759.759 0 0 1 .102.377v3.678a.695.695 0 0 1-.694.695ZM17.825 5.635a1.313 1.313 0 1 1 0-2.626 1.313 1.313 0 0 1 0 2.626Z" fill="#fff"/></g><defs><clipPath id="a"><path fill="#fff" d="M0 0h24v24H0z"/></clipPath></defs></svg>

<svg class="color-immutable" width="24" height="24" viewBox="0 0 24 24" fill="none" xmlns="http://www.w3.org/2000/svg"><path d="M0 22.5V1.5C0 0.675 0.675 0 1.5 0H22.5C23.325 0 24 0.675 24 1.5V22.5C24 23.325 23.325 24 22.5 24H1.5C0.675 24 0 23.325 0 22.5Z" fill="#2D327D"/><path d="M7.08802 17.552H10.501V18.94H13.914V20.328H17.328V21.003H13.239V19.615H9.82602V18.227H6.41302V16.839H2.99902V16.164H7.08802V17.552Z" fill="white"/><path d="M20.474 11.563C20.407 11.563 20.341 11.55 20.279 11.524L19.728 11.294V10.196L20.669 10.589C20.857 10.668 20.98 10.852 20.98 11.056C20.981 11.336 20.754 11.563 20.474 11.563Z" fill="white"/><path d="M20.31 21.003C19.927 21.003 19.616 20.692 19.616 20.309V17.027L18.003 14.251V16.6C18.003 16.738 17.965 16.873 17.894 16.99L16.301 19.606C16.175 19.813 15.95 19.939 15.708 19.939C15.325 19.939 15.014 19.628 15.014 19.245C15.014 19.118 15.049 18.993 15.115 18.884L16.502 16.606V8.391L15.752 9.479V12.226C15.752 12.516 15.517 12.751 15.227 12.751C14.937 12.751 14.702 12.516 14.702 12.226V9.319C14.702 9.167 14.748 9.018 14.835 8.893L16.393 6.634C16.673 6.228 17.135 5.985 17.628 5.985C18.456 5.985 19.128 6.657 19.128 7.485V13.2L20.902 16.253C20.968 16.368 21.004 16.498 21.004 16.63V20.308C21.004 20.692 20.693 21.003 20.31 21.003Z" fill="white"/><path d="M17.825 5.635C17.1 5.635 16.512 5.047 16.512 4.322C16.512 3.597 17.1 3.009 17.825 3.009C18.55 3.009 19.138 3.597 19.138 4.322C19.138 5.047 18.55 5.635 17.825 5.635Z" fill="white"/></svg>
